X: 77
T: Ni duozou le wode xin
L: 1/16
M: 2/4
K: F
A2 c2 A2 c d [I:setbarnb 1]| 
f2 f g d f d c | 
c4c A G c | 
c2> d2 c d f2 | 
A2 c2 A2 c d | 
f2 f g d f d c | 
c4c A G c | 
c2> d2c4 | 
c2 c2 d2 f2 | 
F2> G2 F2 D2 | 
F2> G2 A2 c2 | 
G2> A2G4 | 
G2 c2 G2 A c | 
c2 f2 d f d c | 
c2> f2 A2 G2 | 
F8 | 
A4G2 c2- | 
c6D2 | 
C8 | 
A2 c d c2 A G | 
F2> G2 A2 c d | 
f6g2 | 
d2 f g d2 c d | 
c6A2 | 
G2 c d D2 F G | 
A2 G2 G2 G A | 
F8 |]

@@@ Tune index: 8745
